svg/fluentui-system-icons/ic_fluent_star_emphasis_20_regular.svg

<svg width="20" height="20" viewBox="0 0 20 20" fill="none" xmlns="http://www.w3.org/2000/svg">
<path d="M9.10433 2.89923C9.47114 2.15598 10.531 2.15599 10.8978 2.89923L12.8282 6.81073L17.1448 7.43797C17.9651 7.55715 18.2926 8.56513 17.699 9.14366L14.5755 12.1883L15.3129 16.4875C15.453 17.3044 14.5956 17.9274 13.8619 17.5417L10.0011 15.5119L6.14018 17.5417C5.40655 17.9274 4.54913 17.3044 4.68924 16.4875L5.4266 12.1883L2.30308 9.14366C1.70956 8.56512 2.03708 7.55715 2.8573 7.43797L7.17389 6.81073L9.10433 2.89923ZM10.0011 3.3418L8.07062 7.25329C7.92496 7.54844 7.6434 7.75301 7.31769 7.80034L3.00109 8.42757L6.12461 11.4722C6.3603 11.702 6.46784 12.033 6.41221 12.3574L5.67484 16.6565L9.53572 14.6267C9.82705 14.4736 10.1751 14.4736 10.4664 14.6267L14.3273 16.6565L13.5899 12.3574C13.5343 12.033 13.6418 11.702 13.8775 11.4722L17.001 8.42757L12.6844 7.80034C12.3587 7.75301 12.0772 7.54844 11.9315 7.25329L10.0011 3.3418ZM4.39045 12.6879C4.56296 12.9036 4.528 13.2182 4.31237 13.3907L1.81237 15.3907C1.59673 15.5632 1.28209 15.5283 1.10958 15.3126C0.937079 15.097 0.97204 14.7824 1.18767 14.6099L3.68767 12.6099C3.9033 12.4374 4.21795 12.4723 4.39045 12.6879ZM4.31237 5.10988C4.528 5.28239 4.56296 5.59703 4.39045 5.81266C4.21795 6.0283 3.9033 6.06326 3.68767 5.89075L1.18767 3.89075C0.97204 3.71825 0.937079 3.4036 1.10958 3.18797C1.28209 2.97234 1.59673 2.93738 1.81237 3.10988L4.31237 5.10988ZM15.6095 12.6879C15.437 12.9036 15.472 13.2182 15.6876 13.3907L18.1876 15.3907C18.4033 15.5632 18.7179 15.5283 18.8904 15.3126C19.0629 15.097 19.028 14.7824 18.8123 14.6099L16.3123 12.6099C16.0967 12.4374 15.7821 12.4723 15.6095 12.6879ZM15.6876 5.10988C15.472 5.28239 15.437 5.59703 15.6095 5.81266C15.7821 6.0283 16.0967 6.06326 16.3123 5.89075L18.8123 3.89075C19.028 3.71825 19.0629 3.4036 18.8904 3.18797C18.7179 2.97234 18.4033 2.93738 18.1876 3.10988L15.6876 5.10988Z" fill="#212121"/>
</svg>

<svg xmlns="http://www.w3.org/2000/svg" width="20" height="20"><path d="M9.104 2.9a1 1 0 0 1 1.794 0l1.93 3.91 4.317.628a1 1 0 0 1 .554 1.706l-3.124 3.044.738 4.3a1 1 0 0 1-1.451 1.054l-3.86-2.03-3.862 2.03a1 1 0 0 1-1.45-1.055l.737-4.299-3.124-3.044a1 1 0 0 1 .554-1.706l4.317-.627 1.93-3.912Zm.897.442-1.93 3.911a1 1 0 0 1-.753.547L3 8.428l3.124 3.044a1 1 0 0 1 .287.885l-.737 4.3 3.86-2.03a1 1 0 0 1 .931 0l3.861 2.03-.737-4.3a1 1 0 0 1 .287-.885L17 8.428 12.683 7.8a1 1 0 0 1-.752-.547l-1.93-3.911Zm-5.61 9.346a.5.5 0 0 1-.079.703l-2.5 2a.5.5 0 1 1-.624-.781l2.5-2a.5.5 0 0 1 .702.078Zm-.08-7.578a.5.5 0 1 1-.624.78l-2.5-2a.5.5 0 1 1 .624-.78l2.5 2Zm11.297 7.578a.5.5 0 0 0 .079.703l2.5 2a.5.5 0 1 0 .624-.781l-2.5-2a.5.5 0 0 0-.703.078Zm.079-7.578a.5.5 0 0 0 .624.78l2.5-2a.5.5 0 1 0-.624-.78l-2.5 2Z"/></svg>
